packages/icons/svg/User_Card_Gift_48px.svg

<svg xmlns="http://www.w3.org/2000/svg" viewBox="0 0 48 48"><path d="M39 16h-4.21a5.76 5.76 0 00.8-1.74 5.75 5.75 0 10-11.11-3L24 13l-.47-1.75A5.75 5.75 0 1013.23 16H9a2 2 0 00-2 2v21a2 2 0 002 2h30a2 2 0 002-2V18a2 2 0 00-2-2zm-1 11H25.5v-8.01H38zm-8.68-16.9a2.75 2.75 0 011.43 5.32l-2.13.58h-2.3l1.06-3.94a2.72 2.72 0 011.94-1.96zm-12 5.32a2.75 2.75 0 113.37-3.37L21.7 16h-2.29zM22.5 19v8H10v-8zM10 38v-8h12.5v8zm15.5 0v-8H38v8z"/></svg>

<svg xmlns="http://www.w3.org/2000/svg" viewBox="0 0 48 48"><defs></defs><g id="Icon"><path  d="M39,16H34.79a5.76,5.76,0,0,0,.8-1.74,5.75,5.75,0,1,0-11.11-3L24,13l-.47-1.75A5.75,5.75,0,1,0,13.23,16H9a2,2,0,0,0-2,2V39a2,2,0,0,0,2,2H39a2,2,0,0,0,2-2V18A2,2,0,0,0,39,16ZM38,27H25.5V19.06l0-.07H38ZM29.32,10.1a2.75,2.75,0,0,1,1.43,5.32L28.62,16h-2.3l1.06-3.94A2.72,2.72,0,0,1,29.32,10.1Zm-12,5.32a2.75,2.75,0,1,1,3.37-3.37L21.7,16H19.41ZM22.5,19v8H10V19ZM10,38V30H22.5v8Zm15.5,0V30H38v8Z"/></g></svg>
